;FLAVOR:Marlin
;TIME:11129
;Filament used: 6.86183m
;Layer height: 0.2
;MINX:49.4
;MINY:88.4
;MINZ:0.2
;MAXX:170.6
;MAXY:161.6
;MAXZ:18
;TARGET_MACHINE.NAME:Creality Ender-3 Pro
;Generated with Cura_SteamEngine 5.10.0
; Ender 3 Custom Start G-code
G92 E0 ; Reset Extruder
G28 ; Home all axes
M420 S1 Z10
M104 S175 ; Start heating up the nozzle most of the way
M190 S60 ; Start heating the bed, wait until target temperature reached
M109 S200 ; Finish heating the nozzle
G1 Z2.0 F3000 ; Move Z Axis up little to prevent scratching of Heat Bed
G1 X0.1 Y20 Z0.3 F5000.0 ; Move to start position
G1 X0.1 Y200.0 Z0.3 F1500.0 E15 ; Draw the first line
G1 X0.4 Y200.0 Z0.3 F5000.0 ; Move to side a little
G1 X0.4 Y20 Z0.3 F1500.0 E30 ; Draw the second line
G92 E0 ; Reset Extruder
G1 Z2.0 F3000 ; Move Z Axis up little to prevent scratching of Heat Bed
G1 X5 Y20 Z0.3 F5000.0 ; Move over to prevent blob squish
M82 ;absolute extrusion mode
G92 E0
G92 E0
G1 F1500 E-6.5
;LAYER_COUNT:90
;LAYER:0
M107
G0 F6000 X52.033 Y89.267 Z0.2
;TYPE:SKIRT
G1 F1500 E0
G1 F1200 X52.642 Y88.934 E0.02309
G1 X53.241 Y88.696 E0.04452
G1 X53.969 Y88.507 E0.06954
G1 X54.854 Y88.411 E0.09915
G1 X55.321 Y88.4 E0.11468
G1 X164.299 Y88.4 E3.73931
G1 X165.095 Y88.412 E3.76579
G1 X165.738 Y88.461 E3.78723
G1 X166.468 Y88.609 E3.81201
G1 X167.124 Y88.833 E3.83506
G1 X167.705 Y89.112 E3.8565
G1 X168.331 Y89.515 E3.88126
G1 X168.861 Y89.963 E3.90434
G1 X169.301 Y90.435 E3.92581
G1 X169.71 Y90.995 E3.94887
G1 X170.068 Y91.647 E3.97361
G1 X170.306 Y92.246 E3.99505
G1 X170.494 Y92.974 E4.02006
G1 X170.589 Y93.855 E4.04953
G1 X170.6 Y94.321 E4.06503
G1 X170.6 Y155.333 E6.0943
G1 X170.59 Y156.085 E6.11931
G1 X170.542 Y156.728 E6.14076
G1 X170.408 Y157.409 E6.16384
G1 X170.172 Y158.115 E6.1886
G1 X169.87 Y158.739 E6.21166
G1 X169.522 Y159.282 E6.23311
G1 X169.079 Y159.817 E6.25621
G1 X168.536 Y160.325 E6.28094
G1 X168.014 Y160.704 E6.3024
G1 X167.363 Y161.063 E6.32713
G1 X166.718 Y161.317 E6.35018
G1 X166.037 Y161.492 E6.37357
G1 X165.146 Y161.589 E6.40338
G1 X164.679 Y161.6 E6.41891
G1 X55.635 Y161.6 E10.04573
G1 X54.912 Y161.59 E10.06978
G1 X54.269 Y161.541 E10.09123
G1 X53.588 Y161.407 E10.11431
G1 X52.883 Y161.171 E10.13904
G1 X52.302 Y160.893 E10.16046
G1 X51.676 Y160.49 E10.18523
G1 X51.145 Y160.043 E10.20831
G1 X50.673 Y159.534 E10.2314
G1 X50.294 Y159.012 E10.25286
G1 X49.935 Y158.361 E10.27758
G1 X49.697 Y157.762 E10.29902
G1 X49.508 Y157.034 E10.32404
G1 X49.411 Y156.14 E10.35395
G1 X49.4 Y155.667 E10.36968
G1 X49.4 Y94.599 E12.40081
G1 X49.41 Y93.909 E12.42376
G1 X49.459 Y93.266 E12.44521
G1 X49.594 Y92.585 E12.4683
G1 X49.83 Y91.88 E12.49303
G1 X50.109 Y91.299 E12.51447
G1 X50.512 Y90.672 E12.53926
G1 X50.925 Y90.178 E12.56067
G1 X51.43 Y89.703 E12.58373
G1 X52.033 Y89.267 E12.60848
G0 F6000 X52.226 Y89.617
G1 F1200 X52.79 Y89.306 E12.6299
G1 X53.389 Y89.068 E12.65134
G1 X54.013 Y88.905 E12.67279
G1 X54.863 Y88.811 E12.70123
G1 X55.33 Y88.8 E12.71677
G1 X164.293 Y88.8 E16.3409
G1 X165.065 Y88.811 E16.36658
G1 X165.708 Y88.86 E16.38802
G1 X166.34 Y88.988 E16.40947
G1 X166.951 Y89.194 E16.43092
G1 X167.532 Y89.473 E16.45235
G1 X168.074 Y89.822 E16.47379
G1 X168.568 Y90.236 E16.49523
G1 X169.008 Y90.708 E16.51669
G1 X169.386 Y91.23 E16.53813
G1 X169.696 Y91.795 E16.55956
G1 X169.934 Y92.394 E16.581
G1 X170.096 Y93.018 E16.60244
G1 X170.189 Y93.864 E16.63075
G1 X170.2 Y94.33 E16.64626
G1 X170.2 Y155.328 E18.67506
G1 X170.191 Y156.055 E18.69924
G1 X170.143 Y156.698 E18.72069
G1 X170.016 Y157.33 E18.74213
G1 X169.811 Y157.942 E18.76359
G1 X169.533 Y158.523 E18.78501
G1 X169.185 Y159.066 E18.80647
G1 X168.772 Y159.561 E18.82791
G1 X168.301 Y160.001 E18.84935
G1 X167.779 Y160.38 E18.8708
G1 X167.215 Y160.691 E18.89222
G1 X166.616 Y160.93 E18.91367
G1 X165.993 Y161.094 E18.9351
G1 X165.137 Y161.189 E18.96374
G1 X164.67 Y161.2 E18.97928
G1 X55.64 Y161.2 E22.60563
G1 X54.942 Y161.191 E22.62885
G1 X54.299 Y161.142 E22.6503
G1 X53.667 Y161.015 E22.67174
G1 X53.056 Y160.81 E22.69318
G1 X52.475 Y160.532 E22.7146
G1 X51.932 Y160.183 E22.73607
G1 X51.437 Y159.77 E22.75751
G1 X50.997 Y159.299 E22.77895
G1 X50.618 Y158.777 E22.8004
G1 X50.307 Y158.213 E22.82182
G1 X50.069 Y157.614 E22.84326
G1 X49.906 Y156.99 E22.86471
G1 X49.811 Y156.131 E22.89346
G1 X49.8 Y155.658 E22.90919
G1 X49.8 Y94.604 E24.93986
G1 X49.809 Y93.939 E24.96198
G1 X49.858 Y93.296 E24.98343
G1 X49.986 Y92.664 E25.00487
G1 X50.191 Y92.053 E25.02631
G1 X50.47 Y91.472 E25.04774
G1 X50.819 Y90.929 E25.06921
G1 X51.232 Y90.435 E25.09063
G1 X51.703 Y89.995 E25.11207
G1 X52.226 Y89.617 E25.13353
G1 F1500 E18.63353
;MESH:Body3.stl
G0 F6000 X81.7 Y99.142
G0 X84 Y100.696
;TYPE:WALL-INNER
G1 F1500 E25.13353
G1 F1200 X83.433 Y100.631 E25.15251
G1 X82.893 Y100.406 E25.17197
G1 X82.437 Y100.055 E25.19111
G1 X82.091 Y99.595 E25.21025
G1 X81.874 Y99.086 E25.22866
G1 X81.794 Y98.504 E25.2482
G1 X81.866 Y97.93 E25.26744
G1 X82.09 Y97.393 E25.28679
G1 X82.439 Y96.94 E25.30581
G1 X82.897 Y96.587 E25.32504
G1 X83.431 Y96.366 E25.34426
G1 X84 Y96.3 E25.36332
G1 X84.562 Y96.365 E25.38213
G1 X85.099 Y96.587 E25.40146
G1 X85.556 Y96.939 E25.42065
G1 X85.906 Y97.393 E25.43971
G1 X86.13 Y97.93 E25.45906
G1 X86.202 Y98.504 E25.4783
G1 X86.122 Y99.086 E25.49784
G1 X85.905 Y99.595 E25.51625
G1 X85.559 Y100.054 E25.53537
G1 X85.103 Y100.406 E25.55453
G1 X84.569 Y100.629 E25.57377
G1 X84 Y100.696 E25.59283
G1 F1500 E19.09283
G0 F6000 X82.805 Y100.565
G0 X67.565 Y118.805
G0 X65.506 Y122.2
G1 F1500 E25.59283
G1 F1200 X64.939 Y122.127 E25.61184
G1 X64.395 Y121.908 E25.63135
G1 X63.932 Y121.548 E25.65085
G1 X63.591 Y121.095 E25.66971
G1 X63.372 Y120.567 E25.68872
G1 X63.3 Y120 E25.70773
G1 X63.372 Y119.429 E25.72688
G1 X63.593 Y118.897 E25.74604
G1 X63.939 Y118.439 E25.76513
G1 X64.401 Y118.091 E25.78437
G1 X64.928 Y117.866 E25.80343
G1 X65.501 Y117.795 E25.82263
G1 X66.066 Y117.866 E25.84157
G1 X66.603 Y118.09 E25.86092
G1 X67.056 Y118.439 E25.87994
G1 X67.409 Y118.896 E25.89915
G1 X67.631 Y119.434 E25.9185
G1 X67.696 Y120 E25.93745
G1 X67.63 Y120.565 E25.95637
G1 X67.409 Y121.099 E25.9756
G1 X67.057 Y121.556 E25.99478
G1 X66.602 Y121.907 E26.01389
G1 X66.066 Y122.129 E26.03319
G1 X65.506 Y122.2 E26.05197
G1 F1500 E19.55197
G0 F6000 X65.1 Y125.939
G0 X65.06 Y130.048
G1 F1500 E26.05197
G1 F1200 X64.577 Y130.022 E26.06805
G1 X64.229 Y129.937 E26.07997
G1 X63.755 Y129.72 E26.09731
G1 X63.347 Y129.335 E26.11596
G1 X63.126 Y128.995 E26.12945
G1 X62.989 Y128.635 E26.14226
G1 X62.914 Y128.256 E26.15511
G1 X62.933 Y127.833 E26.1692
G1 X63.128 Y127.232 E26.19021
G1 X63.459 Y126.705 E26.21091
G1 X64.142 Y126.262 E26.23799
G1 X64.528 Y126.153 E26.25133
G1 X65.125 Y126.118 E26.27122
G1 X65.493 Y126.204 E26.28379
G1 X66.002 Y126.431 E26.30232
G1 X66.393 Y126.751 E26.31913
G1 X66.53 Y126.912 E26.32616
G1 X66.797 Y127.367 E26.34371
G1 X66.922 Y127.997 E26.36507
G1 X66.829 Y128.614 E26.38582
G1 X66.604 Y129.078 E26.40297
G1 X66.381 Y129.405 E26.41614
G1 X66.022 Y129.727 E26.43218
G1 X65.566 Y129.947 E26.44902
G1 X65.06 Y130.048 E26.46618
G1 F1500 E19.96618
G0 F6000 X66.122 Y129.881
G0 X69.59 Y129.881
G0 X110 Y145.6
G1 F1500 E26.46618
G1 F1200 X69.882 Y145.6 E27.80051
G1 X69.679 Y145.508 E27.80792
G1 X69.479 Y145.299 E27.81754
G1 X69.403 Y145.064 E27.82576
G1 X69.403 Y106.936 E29.0939
G1 X69.509 Y106.654 E29.10392
G1 X69.708 Y106.475 E29.11282
G1 X69.893 Y106.4 E29.11946
G1 X150.076 Y106.4 E31.78636
G1 X150.292 Y106.475 E31.79396
G1 X150.523 Y106.704 E31.80478
G1 X150.6 Y106.927 E31.81263
G1 X150.6 Y145.073 E33.08137
G1 X150.521 Y145.299 E33.08933
G1 X150.439 Y145.41 E33.09392
G1 X150.249 Y145.547 E33.10171
G1 X150.078 Y145.6 E33.10767
G1 X110 Y145.6 E34.44067
G1 F1500 E27.94067
G0 F6000 X110 Y155.2
G0 X110 Y155.4
G1 F1500 E34.44067
G1 F1200 X164.4 Y155.4 E36.25002
G1 X164.4 Y94.6 E38.27224
G1 X55.601 Y94.601 E41.89091
G1 X55.6 Y155.4 E43.91309
G1 X110 Y155.4 E45.72244
G1 F1500 E39.22244
G0 F6000 X136 Y155.2
G0 X136 Y153.876
G0 X136 Y153.696
G1 F1500 E45.72244
G1 F1200 X135.434 Y153.631 E45.74139
G1 X134.897 Y153.409 E45.76072
G1 X134.44 Y153.057 E45.7799
G1 X134.09 Y152.603 E45.79897
G1 X133.866 Y152.066 E45.81832
G1 X133.794 Y151.498 E45.83736
G1 X133.871 Y150.934 E45.8563
G1 X134.087 Y150.396 E45.87558
G1 X134.44 Y149.939 E45.89479
G1 X134.893 Y149.59 E45.9138
G1 X135.427 Y149.367 E45.93305
G1 X136 Y149.3 E45.95224
G1 X136.563 Y149.365 E45.97109
G1 X137.103 Y149.59 E45.99055
G1 X137.556 Y149.939 E46.00957
G1 X137.908 Y150.396 E46.02875
G1 X138.126 Y150.934 E46.04806
G1 X138.202 Y151.498 E46.06699
G1 X138.13 Y152.066 E46.08603
G1 X137.906 Y152.603 E46.10538
G1 X137.557 Y153.056 E46.1244
G1 X137.103 Y153.406 E46.14347
G1 X136.566 Y153.63 E46.16282
G1 X136 Y153.696 E46.18177
G1 F1500 E39.68177
G0 F6000 X137.027 Y153.278
G0 X137.451 Y152.951
G0 X137.778 Y152.527
G0 X137.982 Y152.031
G0 X138.054 Y151.5
G0 X137.685 Y149.811
G0 X154.152 Y130.08
G0 X154.859 Y130.018
G1 F1500 E46.18177
G1 F1200 X154.207 Y129.907 E46.20377
G1 X153.701 Y129.678 E46.22225
G1 X153.292 Y129.292 E46.24095
G1 X153.079 Y128.955 E46.25421
G1 X152.938 Y128.599 E46.26695
G1 X152.862 Y128.22 E46.2798
G1 X152.875 Y127.792 E46.29404
G1 X153.078 Y127.183 E46.3154
G1 X153.346 Y126.764 E46.33194
G1 X153.526 Y126.583 E46.34043
G1 X154.106 Y126.212 E46.36333
G1 X154.768 Y126.065 E46.38588
G1 X155.4 Y126.142 E46.40706
G1 X155.961 Y126.4 E46.4276
G1 X156.397 Y126.758 E46.44636
G1 X156.612 Y127.062 E46.45874
G1 X156.833 Y127.63 E46.47902
G1 X156.85 Y128.248 E46.49958
G1 X156.763 Y128.604 E46.51177
G1 X156.443 Y129.263 E46.53613
G1 X155.968 Y129.685 E46.55727
G1 X155.527 Y129.902 E46.57361
G1 X154.859 Y130.018 E46.59616
G1 F1500 E40.09616
G0 F6000 X153.791 Y129.55
G0 X153.415 Y129.197
G0 X153.085 Y128.555
G0 X153.016 Y128.203
G0 X153.027 Y127.826
G0 X153.216 Y127.251
G0 X153.498 Y126.813
G0 X154.764 Y125.881
G0 X154.516 Y122.381
G0 X154.514 Y122.2
G1 F1500 E46.59616
G1 F1200 X153.951 Y122.133 E46.61502
G1 X153.396 Y121.908 E46.63494
G1 X152.939 Y121.557 E46.6541
G1 X152.587 Y121.099 E46.67332
G1 X152.366 Y120.565 E46.69254
G1 X152.3 Y120 E46.71146
G1 X152.365 Y119.434 E46.73041
G1 X152.587 Y118.897 E46.74973
G1 X152.939 Y118.44 E46.76892
G1 X153.393 Y118.09 E46.78799
G1 X153.93 Y117.866 E46.80734
G1 X154.501 Y117.795 E46.82648
G1 X155.069 Y117.866 E46.84552
G1 X155.595 Y118.091 E46.86454
G1 X156.057 Y118.439 E46.88378
G1 X156.403 Y118.897 E46.90287
G1 X156.624 Y119.429 E46.92203
G1 X156.696 Y120 E46.94118
G1 X156.63 Y120.568 E46.96019
G1 X156.403 Y121.099 E46.9794
G1 X156.057 Y121.557 E46.99849
G1 X155.606 Y121.898 E47.0173
G1 X155.062 Y122.131 E47.03698
G1 X154.514 Y122.2 E47.05535
G0 F6000 X154.475 Y121.795
;TYPE:WALL-OUTER
G1 F1200 X154.031 Y121.737 E47.07025
G1 X153.577 Y121.543 E47.08667
G1 X153.209 Y121.251 E47.10229
G1 X152.938 Y120.899 E47.11707
G1 X152.754 Y120.447 E47.1333
G1 X152.701 Y119.975 E47.1491
G1 X152.756 Y119.531 E47.16398
G1 X152.953 Y119.077 E47.18044
G1 X153.245 Y118.709 E47.19606
G1 X153.577 Y118.453 E47.21
G1 X154.033 Y118.256 E47.22653
G1 X154.526 Y118.201 E47.24303
G1 X154.982 Y118.264 E47.25834
G1 X155.396 Y118.438 E47.27327
G1 X155.751 Y118.709 E47.28813
G1 X156.043 Y119.077 E47.30375
G1 X156.238 Y119.532 E47.32022
G1 X156.295 Y119.975 E47.33507
G1 X156.238 Y120.464 E47.35145
G1 X156.057 Y120.897 E47.36706
G1 X155.771 Y121.269 E47.38266
G1 X155.4 Y121.556 E47.39826
G1 X154.96 Y121.739 E47.41411
G1 X154.475 Y121.795 E47.43035
G1 F1500 E40.93035
G0 F6000 X154.433 Y122.105
G0 X154.516 Y122.381
G0 X154.764 Y125.881
G0 X154.858 Y129.608
G1 F1500 E47.43035
G1 F1200 X154.35 Y129.526 E47.44747
G1 X153.926 Y129.342 E47.46284
G1 X153.59 Y129.015 E47.47843
G1 X153.446 Y128.787 E47.4874
G1 X153.319 Y128.467 E47.49885
G1 X153.266 Y128.199 E47.50794
G1 X153.273 Y127.863 E47.51912
G1 X153.455 Y127.336 E47.53766
G1 X153.708 Y126.941 E47.55326
G1 X154.264 Y126.589 E47.57515
G1 X154.766 Y126.473 E47.59229
G1 X155.268 Y126.527 E47.60908
G1 X155.721 Y126.726 E47.62554
G1 X156.093 Y127.025 E47.64141
G1 X156.26 Y127.252 E47.65078
G1 X156.433 Y127.713 E47.66716
G1 X156.446 Y128.219 E47.684
G1 X156.377 Y128.484 E47.6931
G1 X156.116 Y129.013 E47.71272
G1 X155.747 Y129.351 E47.72937
G1 X155.383 Y129.524 E47.74277
G1 X154.858 Y129.608 E47.76045
G1 F1500 E41.26045
G0 F6000 X154.805 Y129.918
G0 X154.152 Y130.08
G0 X137.685 Y149.811
G0 X135.975 Y153.295
G1 F1500 E47.76045
G1 F1200 X135.531 Y153.24 E47.77533
G1 X135.077 Y153.043 E47.79179
G1 X134.709 Y152.751 E47.80742
G1 X134.453 Y152.419 E47.82136
G1 X134.256 Y151.963 E47.83788
G1 X134.201 Y151.475 E47.85422
G1 X134.258 Y151.034 E47.86901
G1 X134.453 Y150.577 E47.88553
G1 X134.745 Y150.209 E47.90116
G1 X135.077 Y149.953 E47.9151
G1 X135.532 Y149.756 E47.93159
G1 X136 Y149.7 E47.94727
G1 X136.438 Y149.753 E47.96194
G1 X136.9 Y149.938 E47.9785
G1 X137.287 Y150.245 E47.99493
G1 X137.543 Y150.577 E48.00887
G1 X137.738 Y151.034 E48.0254
G1 X137.795 Y151.526 E48.04187
G1 X137.743 Y151.938 E48.05568
G1 X137.558 Y152.4 E48.07223
G1 X137.251 Y152.787 E48.08866
G1 X136.899 Y153.058 E48.10344
G1 X136.447 Y153.242 E48.11967
G1 X135.975 Y153.295 E48.13547
G1 F1500 E41.63547
G0 F6000 X135.933 Y153.605
G0 X134.805 Y153.565
G0 X134.805 Y155.2
G0 X110 Y155.8
G1 F1500 E48.13547
G1 F1200 X164.8 Y155.8 E49.95812
G1 X164.8 Y94.2 E52.00695
G1 X55.201 Y94.201 E55.65223
G1 X55.2 Y155.8 E57.70102
G1 X110 Y155.8 E59.52367
G1 F1500 E53.02367
G0 F6000 X110 Y155.49
G0 X110 Y155.2
G0 X110 Y145.78
G0 X110 Y145.198
G1 F1500 E59.52367
G1 F1200 X69.965 Y145.198 E60.85524
G1 X69.853 Y145.137 E60.85948
G1 X69.801 Y145.048 E60.86291
G1 X69.8 Y106.952 E62.12999
G1 X69.864 Y106.852 E62.13394
G1 X69.965 Y106.802 E62.13769
G1 X150.035 Y106.802 E64.80083
G1 X150.136 Y106.852 E64.80457
G1 X150.198 Y106.965 E64.80886
G1 X150.198 Y145.035 E66.07507
G1 X150.147 Y145.137 E66.07887
G1 X150.035 Y145.198 E66.08311
G1 X110 Y145.198 E67.41468
G1 F1500 E60.91468
G0 F6000 X110 Y145.51
G0 X69.562 Y145.438
G0 X69.224 Y129.947
G0 X66.516 Y129.526
G0 X65.056 Y129.641
G1 F1500 E67.41468
G1 F1200 X64.637 Y129.626 E67.42862
G1 X64.376 Y129.562 E67.43756
G1 X63.985 Y129.383 E67.45186
G1 X63.674 Y129.094 E67.46599
G1 X63.477 Y128.792 E67.47798
G1 X63.371 Y128.507 E67.48809
G1 X63.318 Y128.239 E67.49718
G1 X63.327 Y127.904 E67.50832
G1 X63.506 Y127.381 E67.52671
G1 X63.762 Y126.986 E67.54237
G1 X64.288 Y126.644 E67.56323
G1 X64.584 Y126.549 E67.57357
G1 X65.099 Y126.522 E67.59073
G1 X65.319 Y126.568 E67.5982
G1 X65.771 Y126.765 E67.6146
G1 X66.167 Y127.084 E67.63151
G1 X66.418 Y127.512 E67.64802
G1 X66.515 Y128.006 E67.66476
G1 X66.442 Y128.495 E67.6812
G1 X66.226 Y128.934 E67.69748
G1 X66.058 Y129.157 E67.70676
G1 X65.795 Y129.394 E67.71854
G1 X65.416 Y129.569 E67.73242
G1 X65.056 Y129.641 E67.74463
G1 F1500 E61.24463
G0 F6000 X65.116 Y129.947
G0 X65.942 Y129.602
G0 X66.45 Y129.054
G0 X66.686 Y128.573
G0 X66.771 Y128.001
G0 X66.657 Y127.423
G0 X66.385 Y126.969
G0 X65.1 Y125.939
G0 X65.512 Y122.382
G0 X65.491 Y121.796
G1 F1500 E67.74463
G1 F1200 X65.035 Y121.739 E67.75992
G1 X64.596 Y121.556 E67.77574
G1 X64.22 Y121.264 E67.79157
G1 X63.938 Y120.896 E67.80699
G1 X63.758 Y120.464 E67.82256
G1 X63.701 Y119.975 E67.83893
G1 X63.758 Y119.532 E67.85379
G1 X63.939 Y119.099 E67.8694
G1 X64.209 Y118.745 E67.8842
G1 X64.577 Y118.453 E67.89983
G1 X65.015 Y118.264 E67.9157
G1 X65.475 Y118.201 E67.93114
G1 X65.938 Y118.253 E67.94663
G1 X66.4 Y118.438 E67.96319
G1 X66.787 Y118.745 E67.97962
G1 X67.043 Y119.077 E67.99356
G1 X67.24 Y119.532 E68.01005
