;FLAVOR:Marlin
;TIME:501
;Filament used: 0.252145m
;Layer height: 0.2
;MINX:86.519
;MINY:115
;MINZ:0.2
;MAXX:133.481
;MAXY:135
;MAXZ:5.4
;TARGET_MACHINE.NAME:Creality Ender-3 Pro
;Generated with Cura_SteamEngine 5.10.0
; Ender 3 Custom Start G-code
G92 E0 ; Reset Extruder
G28 ; Home all axes
M420 S1 Z10
M104 S175 ; Start heating up the nozzle most of the way
M190 S60 ; Start heating the bed, wait until target temperature reached
M109 S200 ; Finish heating the nozzle
G1 Z2.0 F3000 ; Move Z Axis up little to prevent scratching of Heat Bed
G1 X0.1 Y20 Z0.3 F5000.0 ; Move to start position
G1 X0.1 Y200.0 Z0.3 F1500.0 E15 ; Draw the first line
G1 X0.4 Y200.0 Z0.3 F5000.0 ; Move to side a little
G1 X0.4 Y20 Z0.3 F1500.0 E30 ; Draw the second line
G92 E0 ; Reset Extruder
G1 Z2.0 F3000 ; Move Z Axis up little to prevent scratching of Heat Bed
G1 X5 Y20 Z0.3 F5000.0 ; Move over to prevent blob squish
M82 ;absolute extrusion mode
G92 E0
G92 E0
G1 F1500 E-6.5
;LAYER_COUNT:27
;LAYER:0
M107
G0 F6000 X90.035 Y117.873 Z0.2
;TYPE:SKIRT
G1 F1500 E0
G1 F1200 X90.537 Y117.514 E0.02053
G1 X90.916 Y117.275 E0.03543
G1 X91.527 Y116.942 E0.05857
G1 X91.86 Y116.786 E0.0708
G1 X92.464 Y116.546 E0.09242
G1 X92.892 Y116.405 E0.10741
G1 X93.49 Y116.246 E0.12799
G1 X94.95 Y115.95 E0.17754
G1 X95.444 Y115.861 E0.19423
G1 X98.877 Y115.13 E0.31097
G1 X99.896 Y115.011 E0.3451
G1 X100.362 Y115 E0.3606
G1 X119.255 Y115 E0.98898
G1 X120.08 Y115.013 E1.01643
G1 X120.8 Y115.072 E1.04045
G1 X121.198 Y115.143 E1.0539
G1 X122.175 Y115.351 E1.08712
G1 X122.836 Y115.504 E1.10969
G1 X126.346 Y116.205 E1.22874
G1 X126.769 Y116.308 E1.24322
G1 X127.22 Y116.439 E1.25884
G1 X127.832 Y116.658 E1.28046
G1 X128.27 Y116.847 E1.29633
G1 X128.874 Y117.152 E1.31883
G1 X129.192 Y117.338 E1.33108
G1 X129.712 Y117.684 E1.35186
G1 X130.092 Y117.971 E1.3677
G1 X130.562 Y118.371 E1.38822
G1 X130.889 Y118.686 E1.40332
G1 X131.367 Y119.21 E1.42692
G1 X131.614 Y119.517 E1.44002
G1 X131.986 Y120.037 E1.46129
G1 X132.225 Y120.416 E1.47619
G1 X132.558 Y121.027 E1.49933
G1 X132.714 Y121.36 E1.51156
G1 X132.962 Y121.986 E1.53396
G1 X133.081 Y122.346 E1.54657
G1 X133.261 Y123.016 E1.56964
G1 X133.337 Y123.384 E1.58214
G1 X133.443 Y124.138 E1.60747
G1 X133.471 Y124.524 E1.62034
G1 X133.481 Y125.187 E1.64239
G1 X133.461 Y125.616 E1.65668
G1 X133.393 Y126.282 E1.67894
G1 X133.341 Y126.602 E1.68973
G1 X133.182 Y127.305 E1.7137
G1 X133.062 Y127.72 E1.72807
G1 X132.843 Y128.332 E1.74969
G1 X132.652 Y128.773 E1.76567
G1 X132.345 Y129.382 E1.78835
G1 X132.184 Y129.658 E1.79898
G1 X131.798 Y130.237 E1.82213
G1 X131.554 Y130.561 E1.83562
G1 X131.13 Y131.06 E1.8574
G1 X130.813 Y131.389 E1.87259
G1 X130.328 Y131.834 E1.89448
G1 X129.965 Y132.127 E1.91
G1 X129.463 Y132.486 E1.93053
G1 X129.084 Y132.725 E1.94543
G1 X128.473 Y133.058 E1.96857
G1 X128.14 Y133.214 E1.9808
G1 X127.536 Y133.454 E2.00242
G1 X127.108 Y133.595 E2.01741
G1 X126.51 Y133.754 E2.03799
G1 X125.05 Y134.05 E2.08754
G1 X124.556 Y134.139 E2.10423
G1 X121.196 Y134.858 E2.21852
G1 X120.104 Y134.989 E2.2551
G1 X119.62 Y135 E2.2712
G1 X100.671 Y134.999 E2.90145
G1 X99.922 Y134.987 E2.92636
G1 X99.203 Y134.928 E2.95035
G1 X98.807 Y134.858 E2.96373
G1 X97.825 Y134.649 E2.99712
G1 X97.175 Y134.497 E3.01933
G1 X93.654 Y133.795 E3.13874
G1 X93.231 Y133.692 E3.15322
G1 X92.782 Y133.561 E3.16878
G1 X92.168 Y133.342 E3.19046
G1 X91.725 Y133.151 E3.2065
G1 X91.122 Y132.846 E3.22898
G1 X90.806 Y132.661 E3.24116
G1 X90.288 Y132.316 E3.26186
G1 X89.908 Y132.029 E3.2777
G1 X89.438 Y131.629 E3.29822
G1 X89.111 Y131.314 E3.31332
G1 X88.633 Y130.79 E3.33691
G1 X88.386 Y130.483 E3.35002
G1 X88.001 Y129.944 E3.37205
G1 X87.775 Y129.586 E3.38613
G1 X87.464 Y129.02 E3.40761
G1 X87.285 Y128.639 E3.42161
G1 X87.051 Y128.052 E3.44263
G1 X86.903 Y127.604 E3.45832
G1 X86.748 Y127.022 E3.47836
G1 X86.654 Y126.558 E3.4941
G1 X86.557 Y125.862 E3.51747
G1 X86.529 Y125.477 E3.53031
G1 X86.519 Y124.813 E3.5524
G1 X86.539 Y124.383 E3.56672
G1 X86.609 Y123.703 E3.58945
G1 X86.668 Y123.352 E3.60129
G1 X86.82 Y122.688 E3.62395
G1 X86.938 Y122.28 E3.63807
G1 X87.157 Y121.668 E3.65969
G1 X87.348 Y121.227 E3.67568
G1 X87.651 Y120.627 E3.69803
G1 X87.825 Y120.329 E3.70951
G1 X88.195 Y119.773 E3.73173
G1 X88.453 Y119.431 E3.74597
G1 X88.904 Y118.903 E3.76907
G1 X89.169 Y118.628 E3.78177
G1 X89.672 Y118.166 E3.80449
G1 X90.035 Y117.873 E3.82
G0 F6000 X90.268 Y118.198
G1 F1200 X90.77 Y117.839 E3.84053
G1 X91.108 Y117.626 E3.85382
G1 X91.697 Y117.304 E3.87614
G1 X92.008 Y117.158 E3.88757
G1 X92.612 Y116.918 E3.90919
G1 X92.995 Y116.792 E3.9226
G1 X93.593 Y116.633 E3.94318
G1 X95.021 Y116.344 E3.99164
G1 X95.515 Y116.255 E4.00833
G1 X98.924 Y115.527 E4.12427
G1 X99.905 Y115.411 E4.15713
G1 X100.371 Y115.4 E4.17263
G1 X119.249 Y115.4 E4.80052
G1 X120.048 Y115.412 E4.8271
G1 X120.73 Y115.466 E4.84985
G1 X121.115 Y115.534 E4.86285
G1 X122.085 Y115.741 E4.89584
G1 X122.746 Y115.894 E4.91841
G1 X126.251 Y116.594 E5.03729
G1 X126.674 Y116.697 E5.05177
G1 X127.085 Y116.816 E5.066
G1 X127.697 Y117.035 E5.08762
G1 X128.09 Y117.204 E5.10185
G1 X128.672 Y117.497 E5.12352
G1 X128.97 Y117.671 E5.135
G1 X129.49 Y118.017 E5.15577
G1 X129.833 Y118.276 E5.17006
G1 X130.303 Y118.676 E5.19059
G1 X130.594 Y118.956 E5.20402
G1 X131.055 Y119.461 E5.22677
G1 X131.302 Y119.768 E5.23987
G1 X131.661 Y120.27 E5.2604
G1 X131.874 Y120.608 E5.27369
G1 X132.196 Y121.197 E5.29601
G1 X132.342 Y121.508 E5.30744
G1 X132.582 Y122.112 E5.32906
G1 X132.701 Y122.472 E5.34167
G1 X132.869 Y123.097 E5.36319
G1 X132.945 Y123.465 E5.37569
G1 X133.044 Y124.168 E5.3993
G1 X133.071 Y124.53 E5.41138
G1 X133.081 Y125.169 E5.43263
G1 X133.063 Y125.576 E5.44618
G1 X132.998 Y126.218 E5.46765
G1 X132.946 Y126.538 E5.47843
G1 X132.798 Y127.194 E5.5008
G1 X132.685 Y127.585 E5.51433
G1 X132.466 Y128.197 E5.53595
G1 X132.295 Y128.593 E5.5503
G1 X131.999 Y129.18 E5.57216
G1 X131.838 Y129.456 E5.58279
G1 X131.478 Y129.996 E5.60438
G1 X131.234 Y130.32 E5.61787
G1 X130.825 Y130.801 E5.63887
G1 X130.543 Y131.094 E5.65239
G1 X130.058 Y131.539 E5.67428
G1 X129.732 Y131.802 E5.68822
G1 X129.23 Y132.161 E5.70874
G1 X128.892 Y132.374 E5.72203
G1 X128.303 Y132.696 E5.74436
G1 X127.992 Y132.842 E5.75578
G1 X127.388 Y133.082 E5.7774
G1 X127.005 Y133.208 E5.79081
G1 X126.407 Y133.367 E5.81139
G1 X124.979 Y133.656 E5.85985
G1 X124.485 Y133.745 E5.87655
G1 X121.112 Y134.467 E5.99127
G1 X120.095 Y134.589 E6.02534
G1 X119.62 Y134.6 E6.04114
G1 X100.677 Y134.599 E6.67119
G1 X99.954 Y134.588 E6.69524
G1 X99.272 Y134.534 E6.718
G1 X98.89 Y134.467 E6.73089
G1 X97.916 Y134.26 E6.76401
G1 X97.253 Y134.105 E6.78666
G1 X93.749 Y133.406 E6.9055
G1 X93.326 Y133.303 E6.91998
G1 X92.916 Y133.184 E6.93418
G1 X92.302 Y132.965 E6.95586
G1 X91.905 Y132.794 E6.97024
G1 X91.324 Y132.501 E6.99188
G1 X91.028 Y132.328 E7.00328
G1 X90.51 Y131.983 E7.02398
G1 X90.167 Y131.724 E7.03828
G1 X89.697 Y131.324 E7.05881
G1 X89.406 Y131.044 E7.07224
G1 X88.945 Y130.539 E7.09498
G1 X88.698 Y130.232 E7.10809
G1 X88.339 Y129.73 E7.12861
G1 X88.126 Y129.393 E7.14187
G1 X87.815 Y128.827 E7.16335
G1 X87.657 Y128.491 E7.1757
G1 X87.423 Y127.904 E7.19672
G1 X87.29 Y127.501 E7.21083
G1 X87.135 Y126.919 E7.23087
G1 X87.05 Y126.502 E7.24502
G1 X86.956 Y125.832 E7.26752
G1 X86.929 Y125.471 E7.27956
G1 X86.919 Y124.831 E7.30085
G1 X86.937 Y124.424 E7.3144
G1 X87.004 Y123.768 E7.33634
G1 X87.058 Y123.441 E7.34736
G1 X87.204 Y122.799 E7.36926
G1 X87.315 Y122.415 E7.38255
G1 X87.534 Y121.803 E7.40417
G1 X87.705 Y121.407 E7.41852
G1 X87.997 Y120.828 E7.44009
G1 X88.158 Y120.551 E7.45074
G1 X88.528 Y119.995 E7.47295
G1 X88.757 Y119.691 E7.48561
G1 X89.192 Y119.181 E7.50791
G1 X89.457 Y118.906 E7.52061
G1 X89.942 Y118.461 E7.5425
G1 X90.268 Y118.198 E7.55643
G0 F6000 X90.501 Y118.523
G1 F1200 X90.984 Y118.177 E7.5762
G1 X91.3 Y117.977 E7.58863
G1 X91.867 Y117.666 E7.61014
G1 X92.156 Y117.53 E7.62077
G1 X92.738 Y117.298 E7.6416
G1 X93.098 Y117.179 E7.65422
G1 X93.696 Y117.02 E7.6748
G1 X95.092 Y116.738 E7.72217
G1 X95.586 Y116.649 E7.73886
G1 X98.972 Y115.924 E7.85403
G1 X99.914 Y115.811 E7.88559
G1 X100.38 Y115.8 E7.90109
G1 X119.243 Y115.8 E8.52848
G1 X120.018 Y115.811 E8.55426
G1 X120.661 Y115.86 E8.5757
G1 X121.031 Y115.925 E8.5882
G1 X121.995 Y116.131 E8.62099
G1 X122.656 Y116.284 E8.64355
G1 X126.156 Y116.983 E8.76226
G1 X126.579 Y117.086 E8.77674
G1 X126.95 Y117.193 E8.78958
G1 X127.562 Y117.412 E8.8112
G1 X127.911 Y117.562 E8.82384
G1 X128.471 Y117.843 E8.84468
G1 X128.748 Y118.004 E8.85533
G1 X129.268 Y118.35 E8.87611
G1 X129.574 Y118.581 E8.88886
G1 X130.044 Y118.981 E8.90939
G1 X130.299 Y119.226 E8.92115
G1 X130.744 Y119.712 E8.94306
G1 X130.977 Y120.001 E8.95541
G1 X131.323 Y120.484 E8.97517
G1 X131.523 Y120.8 E8.98761
G1 X131.834 Y121.367 E9.00912
G1 X131.97 Y121.656 E9.01974
G1 X132.202 Y122.238 E9.04058
G1 X132.321 Y122.598 E9.05319
G1 X132.477 Y123.178 E9.07317
G1 X132.553 Y123.546 E9.08567
G1 X132.645 Y124.199 E9.1076
G1 X132.671 Y124.537 E9.11888
G1 X132.681 Y125.152 E9.13933
G1 X132.665 Y125.536 E9.15212
G1 X132.603 Y126.154 E9.17277
G1 X132.551 Y126.474 E9.18356
G1 X132.414 Y127.083 E9.20432
G1 X132.308 Y127.45 E9.21702
G1 X132.089 Y128.062 E9.23864
G1 X131.938 Y128.413 E9.25135
G1 X131.653 Y128.978 E9.2724
G1 X131.492 Y129.254 E9.28303
G1 X131.158 Y129.756 E9.30308
G1 X130.929 Y130.061 E9.31577
G1 X130.52 Y130.542 E9.33677
G1 X130.273 Y130.799 E9.34862
G1 X129.788 Y131.244 E9.37052
G1 X129.499 Y131.477 E9.38286
G1 X129.016 Y131.823 E9.40262
G1 X128.7 Y132.023 E9.41506
G1 X128.133 Y132.334 E9.43657
G1 X127.844 Y132.47 E9.44719
G1 X127.262 Y132.702 E9.46803
G1 X126.902 Y132.821 E9.48064
G1 X126.304 Y132.98 E9.50122
G1 X124.908 Y133.262 E9.54859
G1 X124.414 Y133.351 E9.56529
G1 X121.028 Y134.076 E9.68046
G1 X120.086 Y134.189 E9.71202
G1 X119.62 Y134.2 E9.72752
G1 X100.683 Y134.199 E10.35737
G1 X99.984 Y134.189 E10.38062
G1 X99.341 Y134.14 E10.40207
G1 X98.973 Y134.076 E10.41449
G1 X98.007 Y133.87 E10.44734
G1 X97.344 Y133.716 E10.46998
G1 X93.844 Y133.017 E10.58869
G1 X93.421 Y132.914 E10.60317
G1 X93.05 Y132.807 E10.61601
G1 X92.436 Y132.588 E10.63769
G1 X92.085 Y132.437 E10.6504
G1 X91.525 Y132.155 E10.67126
G1 X91.25 Y131.995 E10.68184
G1 X90.732 Y131.65 E10.70254
G1 X90.426 Y131.419 E10.71529
G1 X89.956 Y131.019 E10.73582
G1 X89.701 Y130.774 E10.74758
G1 X89.256 Y130.288 E10.7695
G1 X89.023 Y129.999 E10.78184
G1 X88.677 Y129.516 E10.8016
G1 X88.477 Y129.2 E10.81404
G1 X88.166 Y128.634 E10.83552
G1 X88.029 Y128.343 E10.84622
G1 X87.795 Y127.756 E10.86724
G1 X87.677 Y127.398 E10.87978
G1 X87.522 Y126.816 E10.89981
G1 X87.446 Y126.446 E10.91237
G1 X87.355 Y125.801 E10.93404
G1 X87.329 Y125.465 E10.94524
G1 X87.319 Y124.848 E10.96577
G1 X87.335 Y124.464 E10.97855
G1 X87.399 Y123.833 E10.99965
G1 X87.453 Y123.506 E11.01067
G1 X87.588 Y122.91 E11.031
G1 X87.692 Y122.55 E11.04346
G1 X87.911 Y121.938 E11.06508
G1 X88.062 Y121.587 E11.07779
G1 X88.343 Y121.029 E11.09857
G1 X88.504 Y120.752 E11.10922
G1 X88.847 Y120.236 E11.12983
G1 X89.076 Y119.932 E11.14249
G1 X89.48 Y119.458 E11.1632
G1 X89.727 Y119.201 E11.17506
G1 X90.212 Y118.756 E11.19695
G1 X90.501 Y118.523 E11.2093
G1 F1500 E4.7093
G0 F6000 X100.25 Y121.2
G1 F1500 E11.2093
G1 F1200 X119.75 Y121.2 E11.85787
G1 X119.75 Y128.8 E12.11065
G1 X100.25 Y128.8 E12.75922
G1 X100.25 Y121.2 E13.012
G0 F6000 X100.65 Y121.6
G1 F1200 X119.35 Y121.6 E13.63396
G1 X119.35 Y128.4 E13.86013
G1 X100.65 Y128.4 E14.4821
G1 X100.65 Y121.6 E14.70827
G0 F6000 X101.05 Y122
G1 F1200 X118.95 Y122 E15.30362
G1 X118.95 Y128 E15.50318
G1 X101.05 Y128 E16.09854
G1 X101.05 Y122 E16.2981
G0 F6000 X101.45 Y122.4
G1 F1200 X118.55 Y122.4 E16.86685
G1 X118.55 Y127.6 E17.0398
G1 X101.45 Y127.6 E17.60855
G1 X101.45 Y122.4 E17.7815
G0 F6000 X101.85 Y122.8
G1 F1200 X118.15 Y122.8 E18.32364
G1 X118.15 Y127.2 E18.46999
G1 X101.85 Y127.2 E19.01213
G1 X101.85 Y122.8 E19.15847
G0 F6000 X102.25 Y123.2
G1 F1200 X117.75 Y123.2 E19.674
G1 X117.75 Y126.8 E19.79374
G1 X102.25 Y126.8 E20.30927
G1 X102.25 Y123.2 E20.42901
G0 F6000 X102.65 Y123.6
G1 F1200 X117.35 Y123.6 E20.91793
G1 X117.35 Y126.4 E21.01106
G1 X102.65 Y126.4 E21.49999
G1 X102.65 Y123.6 E21.59311
G0 F6000 X103.05 Y124
G1 F1200 X116.95 Y124 E22.05543
G1 X116.95 Y126 E22.12195
G1 X103.05 Y126 E22.58427
G1 X103.05 Y124 E22.65079
G0 F6000 X103.45 Y124.4
G1 F1200 X116.55 Y124.4 E23.08649
G1 X116.55 Y125.6 E23.12641
G1 X103.45 Y125.6 E23.56211
G1 X103.45 Y124.4 E23.60203
G0 F6000 X103.85 Y124.8
G1 F1200 X116.15 Y124.8 E24.01113
G1 X116.15 Y125.2 E24.02443
G1 X103.85 Y125.2 E24.43353
G1 X103.85 Y124.8 E24.44683
G1 F1500 E17.94683
;MESH:Body9.stl
G0 F6000 X99.915 Y124.8
G0 X98.648 Y127.399
;TYPE:WALL-INNER
G1 F1500 E24.44683
G1 F1200 X98.648 Y122.6 E24.60645
G1 F1212.1 X95.961 Y122.597 E24.69492
G1 F1250 X95.527 Y122.587 E24.70879
G1 F1283.4 X95.194 Y122.608 E24.71916
G1 F1297.3 X94.922 Y122.653 E24.72764
G1 X94.645 Y122.742 E24.7366
G1 F1276.6 X94.375 Y122.865 E24.74587
G1 F1290.3 X94.129 Y123.011 E24.75472
G1 F1293.8 X93.902 Y123.193 E24.7637
G1 F1280 X93.693 Y123.402 E24.77291
G1 F1293.8 X93.499 Y123.646 E24.78253
G1 F1290.3 X93.365 Y123.875 E24.79074
G1 F1280 X93.242 Y124.145 E24.79999
G1 F1297.3 X93.153 Y124.422 E24.80894
G1 X93.108 Y124.694 E24.81742
G1 F1283.4 X93.088 Y125 E24.82696
G1 X93.11 Y125.311 E24.83665
G1 F1293.8 X93.153 Y125.574 E24.84487
G1 F1297.3 X93.242 Y125.851 E24.85382
G1 F1290.3 X93.434 Y126.268 E24.86802
G1 X93.7 Y126.6 E24.88118
G1 F1283.4 X93.902 Y126.803 E24.89009
G1 F1297.3 X94.159 Y127.006 E24.90016
G1 F1293.8 X94.386 Y127.136 E24.90823
G1 F1283.4 X94.645 Y127.255 E24.9171
G1 F1297.3 X94.935 Y127.346 E24.92645
G1 F1290.3 X95.195 Y127.39 E24.93461
G1 F1280 X95.513 Y127.409 E24.94454
G1 F1250 X95.961 Y127.399 E24.95885
G1 F1209.1 X98.648 Y127.399 E25.04755
G0 F6000 X95.474 Y127.225
G0 X96.1 Y127.085
G0 X95.51 Y127.035
G1 F1280 X95.234 Y127.016 E25.05617
G1 F1297.3 X94.892 Y126.962 E25.06683
G1 F1311.5 X94.3 Y126.668 E25.08694
G1 F1290.3 X93.965 Y126.337 E25.10151
G1 X93.803 Y126.145 E25.10928
G1 F1304.3 X93.515 Y125.557 E25.12931
G1 F1297.3 X93.462 Y124.962 E25.14769
G1 X93.516 Y124.442 E25.16378
G1 F1311.5 X93.784 Y123.87 E25.183
G1 F1293.8 X93.966 Y123.659 E25.1916
G1 F1286.9 X94.331 Y123.301 E25.20745
G1 F1297.3 X94.977 Y123 E25.22938
G1 F1290.3 X95.525 Y122.961 E25.24637
G1 F1250 X95.943 Y122.99 E25.25975
G1 F1212.1 X96.148 Y123.045 E25.26674
G1 F1206 X96.694 Y123.305 E25.28675
G1 F1200 X97.18 Y123.787 E25.30952
G1 X97.501 Y124.445 E25.33387
G1 X97.548 Y125 E25.3524
G1 X97.498 Y125.556 E25.37096
G1 X97.181 Y126.209 E25.39511
G1 X96.769 Y126.621 E25.41448
G1 X96.601 Y126.739 E25.42131
G1 F1206 X96.055 Y126.996 E25.44128
G1 F1243.5 X95.51 Y127.035 E25.45882
G0 F6000 X95.481 Y126.648
;TYPE:WALL-OUTER
G1 F1200 X95.048 Y126.604 E25.4733
G1 X94.544 Y126.365 E25.49185
G1 X94.147 Y125.969 E25.5105
G1 X93.892 Y125.448 E25.52979
G1 X93.848 Y124.981 E25.54539
G1 X93.892 Y124.548 E25.55987
G1 X94.135 Y124.044 E25.57848
G1 X94.528 Y123.646 E25.59708
G1 X95.048 Y123.392 E25.61633
G1 X95.481 Y123.348 E25.63081
G1 X95.942 Y123.387 E25.64619
G1 X96.462 Y123.638 E25.6654
G1 X96.864 Y124.042 E25.68435
G1 X97.109 Y124.556 E25.70329
G1 X97.148 Y125.019 E25.71875
G1 X97.108 Y125.442 E25.73288
G1 X96.864 Y125.954 E25.75174
G1 X96.463 Y126.361 E25.77075
G1 X95.94 Y126.609 E25.79
G1 X95.481 Y126.648 E25.80532
G1 F1500 E19.30532
G0 F6000 X95.454 Y126.957
G0 X95.474 Y127.225
G0 X98.77 Y127.52
G0 X99.048 Y127.799
G1 F1500 E25.80532
G1 F1200 X99.048 Y122.2 E25.99154
