;FLAVOR:Marlin
;TIME:21096
;Filament used: 12.947m
;Layer height: 0.2
;MINX:44
;MINY:83
;MINZ:0.2
;MAXX:176
;MAXY:167
;MAXZ:30
;TARGET_MACHINE.NAME:Creality Ender-3 Pro
;Generated with Cura_SteamEngine 5.10.0
; Ender 3 Custom Start G-code
G92 E0 ; Reset Extruder
G28 ; Home all axes
M420 S1 Z10
M104 S175 ; Start heating up the nozzle most of the way
M190 S60 ; Start heating the bed, wait until target temperature reached
M109 S200 ; Finish heating the nozzle
G1 Z2.0 F3000 ; Move Z Axis up little to prevent scratching of Heat Bed
G1 X0.1 Y20 Z0.3 F5000.0 ; Move to start position
G1 X0.1 Y200.0 Z0.3 F1500.0 E15 ; Draw the first line
G1 X0.4 Y200.0 Z0.3 F5000.0 ; Move to side a little
G1 X0.4 Y20 Z0.3 F1500.0 E30 ; Draw the second line
G92 E0 ; Reset Extruder
G1 Z2.0 F3000 ; Move Z Axis up little to prevent scratching of Heat Bed
G1 X5 Y20 Z0.3 F5000.0 ; Move over to prevent blob squish
M82 ;absolute extrusion mode
G92 E0
G92 E0
G1 F1500 E-6.5
;LAYER_COUNT:150
;LAYER:0
M107
G0 F6000 X49.821 Y84.311 Z0.2
;TYPE:SKIRT
G1 F1500 E0
G1 F1200 X50.699 Y83.89 E0.03239
G1 X51.612 Y83.548 E0.06481
G1 X52.549 Y83.289 E0.09715
G1 X53.516 Y83.111 E0.12985
G1 X54.655 Y83.015 E0.16787
G1 X55.312 Y83 E0.18972
G1 X164.304 Y83 E3.81481
G1 X165.184 Y83.013 E3.84409
G1 X166.156 Y83.072 E3.87647
G1 X167.119 Y83.218 E3.90887
G1 X168.066 Y83.449 E3.94129
G1 X168.954 Y83.749 E3.97246
G1 X169.846 Y84.139 E4.00484
G1 X170.729 Y84.626 E4.03838
G1 X171.48 Y85.128 E4.06843
G1 X172.295 Y85.786 E4.10327
G1 X172.993 Y86.464 E4.13563
G1 X173.629 Y87.201 E4.16801
G1 X174.199 Y87.991 E4.20041
G1 X174.661 Y88.767 E4.23045
G1 X175.115 Y89.709 E4.26523
G1 X175.444 Y90.587 E4.29641
G1 X175.713 Y91.559 E4.32996
G1 X175.89 Y92.525 E4.36262
G1 X175.985 Y93.655 E4.40034
G1 X176 Y94.33 E4.4228
G1 X175.999 Y155.4 E6.45399
G1 X175.988 Y156.163 E6.47937
G1 X175.931 Y157.136 E6.51179
G1 X175.786 Y158.099 E6.54418
G1 X175.557 Y159.045 E6.57655
G1 X175.246 Y159.969 E6.60898
G1 X174.854 Y160.86 E6.64136
G1 X174.386 Y161.712 E6.67369
G1 X173.864 Y162.493 E6.70493
G1 X173.231 Y163.278 E6.73847
G1 X172.606 Y163.929 E6.76849
G1 X171.817 Y164.617 E6.80331
G1 X171.057 Y165.167 E6.83451
G1 X170.19 Y165.684 E6.86808
G1 X169.312 Y166.106 E6.90048
G1 X168.401 Y166.448 E6.93285
G1 X167.462 Y166.709 E6.96526
G1 X166.496 Y166.887 E6.99793
G1 X165.345 Y166.985 E7.03635
G1 X164.67 Y167 E7.05881
G1 X55.564 Y166.999 E10.68769
G1 X54.831 Y166.988 E10.71207
G1 X53.859 Y166.931 E10.74446
G1 X52.896 Y166.785 E10.77685
G1 X51.95 Y166.556 E10.80923
G1 X51.026 Y166.244 E10.84166
G1 X50.136 Y165.852 E10.87401
G1 X49.313 Y165.401 E10.90522
G1 X48.474 Y164.84 E10.93879
G1 X47.77 Y164.274 E10.96883
G1 X47.017 Y163.549 E11.0036
G1 X46.38 Y162.813 E11.03598
G1 X45.85 Y162.082 E11.06601
G1 X45.314 Y161.185 E11.10076
G1 X44.892 Y160.307 E11.13316
G1 X44.55 Y159.395 E11.16556
G1 X44.29 Y158.457 E11.19793
G1 X44.112 Y157.488 E11.2307
G1 X44.014 Y156.309 E11.27005
G1 X44 Y155.658 E11.29171
G1 X44.001 Y94.525 E13.325
G1 X44.012 Y93.825 E13.34828
G1 X44.07 Y92.852 E13.3807
G1 X44.216 Y91.889 E13.4131
G1 X44.446 Y90.943 E13.44548
G1 X44.759 Y90.02 E13.4779
G1 X45.151 Y89.13 E13.51024
G1 X45.621 Y88.277 E13.54263
G1 X46.164 Y87.469 E13.57501
G1 X46.731 Y86.765 E13.60508
G1 X47.456 Y86.013 E13.63982
G1 X48.192 Y85.376 E13.6722
G1 X48.924 Y84.846 E13.70225
G1 X49.821 Y84.311 E13.73699
G0 F6000 X49.995 Y84.671
G1 F1200 X50.84 Y84.264 E13.76819
G1 X51.719 Y83.933 E13.79943
G1 X52.622 Y83.682 E13.8306
G1 X53.55 Y83.51 E13.86199
G1 X54.689 Y83.414 E13.90001
G1 X55.321 Y83.4 E13.92103
G1 X164.298 Y83.4 E17.54562
G1 X165.16 Y83.412 E17.5743
G1 X166.097 Y83.468 E17.60552
G1 X167.025 Y83.607 E17.63673
G1 X167.938 Y83.828 E17.66797
G1 X168.794 Y84.116 E17.69801
G1 X169.686 Y84.506 E17.73039
G1 X170.507 Y84.959 E17.76158
G1 X171.258 Y85.461 E17.79162
G1 X172.017 Y86.073 E17.82405
G1 X172.691 Y86.726 E17.85526
G1 X173.305 Y87.435 E17.88646
G1 X173.855 Y88.196 E17.91769
G1 X174.317 Y88.972 E17.94772
G1 X174.74 Y89.849 E17.98011
G1 X175.069 Y90.727 E18.01129
G1 X175.32 Y91.632 E18.04253
G1 X175.491 Y92.559 E18.07388
G1 X175.586 Y93.689 E18.1116
G1 X175.6 Y94.33 E18.13292
G1 X175.599 Y155.395 E20.16395
G1 X175.589 Y156.14 E20.18874
G1 X175.535 Y157.077 E20.21995
G1 X175.397 Y158.006 E20.25119
G1 X175.178 Y158.918 E20.28239
G1 X174.88 Y159.808 E20.3136
G1 X174.503 Y160.668 E20.34483
G1 X174.053 Y161.49 E20.376
G1 X173.531 Y162.271 E20.40725
G1 X172.942 Y163.001 E20.43844
G1 X172.317 Y163.652 E20.46846
G1 X171.582 Y164.293 E20.5009
G1 X170.822 Y164.843 E20.5321
G1 X170.016 Y165.324 E20.56332
G1 X169.171 Y165.732 E20.59453
G1 X168.293 Y166.063 E20.62574
G1 X167.389 Y166.316 E20.65696
G1 X166.462 Y166.488 E20.68832
G1 X165.311 Y166.586 E20.72674
G1 X164.67 Y166.6 E20.74806
G1 X55.57 Y166.599 E24.37674
G1 X54.854 Y166.589 E24.40056
G1 X53.918 Y166.535 E24.43174
G1 X52.989 Y166.396 E24.46299
G1 X52.077 Y166.177 E24.49418
G1 X51.187 Y165.878 E24.52541
G1 X50.328 Y165.501 E24.55661
G1 X49.505 Y165.05 E24.58782
G1 X48.725 Y164.528 E24.61904
G1 X48.021 Y163.962 E24.64908
G1 X47.319 Y163.287 E24.68147
G1 X46.704 Y162.578 E24.71269
G1 X46.174 Y161.847 E24.74272
G1 X45.674 Y161.011 E24.77512
G1 X45.266 Y160.166 E24.80633
G1 X44.935 Y159.288 E24.83754
G1 X44.683 Y158.384 E24.86875
G1 X44.511 Y157.455 E24.90018
G1 X44.413 Y156.276 E24.93953
G1 X44.4 Y155.658 E24.96009
G1 X44.401 Y94.531 E26.99318
G1 X44.411 Y93.848 E27.0159
G1 X44.466 Y92.911 E27.04712
G1 X44.605 Y91.983 E27.07833
G1 X44.825 Y91.071 E27.10953
G1 X45.125 Y90.181 E27.14077
G1 X45.502 Y89.322 E27.17197
G1 X45.953 Y88.5 E27.20315
G1 X46.476 Y87.72 E27.23439
G1 X47.043 Y87.016 E27.26445
G1 X47.718 Y86.315 E27.29682
G1 X48.427 Y85.7 E27.32804
G1 X49.159 Y85.17 E27.35809
G1 X49.995 Y84.671 E27.39048
G0 F6000 X50.169 Y85.031
G1 F1200 X50.982 Y84.638 E27.42051
G1 X51.827 Y84.318 E27.45056
G1 X52.696 Y84.075 E27.48057
G1 X53.584 Y83.909 E27.51062
G1 X54.723 Y83.813 E27.54864
G1 X55.33 Y83.8 E27.56883
G1 X164.293 Y83.8 E31.19296
G1 X165.137 Y83.811 E31.22103
G1 X166.039 Y83.864 E31.25108
G1 X166.932 Y83.996 E31.28111
G1 X167.81 Y84.207 E31.31114
G1 X168.666 Y84.495 E31.34118
G1 X169.493 Y84.857 E31.37121
G1 X170.285 Y85.292 E31.40126
G1 X171.036 Y85.794 E31.4313
G1 X171.739 Y86.361 E31.46134
G1 X172.389 Y86.988 E31.49138
G1 X172.981 Y87.67 E31.52142
G1 X173.511 Y88.401 E31.55145
G1 X173.973 Y89.177 E31.58149
G1 X174.366 Y89.99 E31.61152
G1 X174.684 Y90.835 E31.64155
G1 X174.927 Y91.705 E31.67159
G1 X175.092 Y92.593 E31.70163
G1 X175.187 Y93.723 E31.73935
G1 X175.2 Y94.33 E31.75955
G1 X175.199 Y155.39 E33.79041
G1 X175.19 Y156.117 E33.81459
G1 X175.139 Y157.019 E33.84464
G1 X175.008 Y157.913 E33.87469
G1 X174.799 Y158.791 E33.90471
G1 X174.513 Y159.648 E33.93476
G1 X174.152 Y160.476 E33.9648
G1 X173.72 Y161.268 E33.99481
G1 X173.219 Y162.02 E34.02486
G1 X172.653 Y162.724 E34.05491
G1 X172.028 Y163.375 E34.08492
G1 X171.347 Y163.969 E34.11498
G1 X170.616 Y164.5 E34.14503
G1 X169.842 Y164.964 E34.17504
G1 X169.029 Y165.358 E34.20509
G1 X168.185 Y165.678 E34.23511
G1 X167.315 Y165.923 E34.26518
G1 X166.428 Y166.089 E34.29519
G1 X165.277 Y166.187 E34.33361
G1 X164.67 Y166.2 E34.3538
G1 X55.575 Y166.199 E37.98232
G1 X54.877 Y166.19 E38.00554
G1 X53.976 Y166.139 E38.03555
G1 X53.082 Y166.007 E38.06561
G1 X52.204 Y165.798 E38.09563
G1 X51.347 Y165.511 E38.12569
G1 X50.52 Y165.15 E38.1557
G1 X49.727 Y164.717 E38.18575
G1 X48.976 Y164.216 E38.21578
G1 X48.272 Y163.65 E38.24582
G1 X47.621 Y163.024 E38.27586
G1 X47.028 Y162.343 E38.30589
G1 X46.498 Y161.612 E38.33592
G1 X46.034 Y160.837 E38.36597
G1 X45.64 Y160.024 E38.39602
G1 X45.32 Y159.18 E38.42604
G1 X45.076 Y158.31 E38.45609
G1 X44.91 Y157.422 E38.48614
G1 X44.813 Y156.267 E38.52469
G1 X44.8 Y155.658 E38.54495
G1 X44.801 Y94.536 E40.57787
G1 X44.81 Y93.871 E40.59999
G1 X44.862 Y92.969 E40.63004
G1 X44.994 Y92.076 E40.66007
G1 X45.204 Y91.198 E40.69009
G1 X45.491 Y90.341 E40.72015
G1 X45.853 Y89.514 E40.75018
G1 X46.286 Y88.722 E40.7802
G1 X46.788 Y87.971 E40.81025
G1 X47.355 Y87.267 E40.84031
G1 X47.981 Y86.617 E40.87033
G1 X48.662 Y86.024 E40.90036
G1 X49.394 Y85.494 E40.93042
G1 X50.169 Y85.031 E40.96045
G1 F1500 E34.46045
;MESH:Body1.stl
G0 F6000 X69.71 Y100.154
G0 X72.114 Y102.591
;TYPE:WALL-INNER
G1 F1500 E40.96045
G1 F1200 X71.591 Y102.591 E40.97784
G1 X71.102 Y102.469 E40.9946
G1 X70.624 Y102.214 E41.01262
G1 X70.222 Y101.837 E41.03095
G1 X69.949 Y101.316 E41.05052
G1 X69.828 Y100.765 E41.06928
G1 X69.893 Y100.199 E41.08823
G1 X70.085 Y99.705 E41.10586
G1 X70.35 Y99.336 E41.12097
G1 X70.742 Y98.985 E41.13847
G1 X71.264 Y98.744 E41.15759
G1 X71.742 Y98.665 E41.1737
G1 X72.249 Y98.704 E41.19062
G1 X72.632 Y98.844 E41.20418
G1 X73.043 Y99.061 E41.21964
G1 X73.39 Y99.372 E41.23514
G1 X73.644 Y99.753 E41.25037
G1 X73.791 Y100.187 E41.26561
G1 X73.836 Y100.642 E41.28081
G1 X73.77 Y101.103 E41.2963
G1 X73.58 Y101.531 E41.31188
G1 X73.372 Y101.868 E41.32505
G1 X73.02 Y102.217 E41.34154
G1 X72.595 Y102.458 E41.35779
G1 X72.114 Y102.591 E41.37438
G1 F1500 E34.87438
G0 F6000 X73.096 Y146.67
G0 X73.48 Y150.768
G1 F1500 E41.37438
G1 F1200 X72.951 Y150.782 E41.39198
G1 X72.445 Y150.656 E41.40933
G1 X71.983 Y150.411 E41.42672
G1 X71.565 Y150.024 E41.44567
G1 X71.303 Y149.507 E41.46495
G1 X71.176 Y148.936 E41.4844
G1 X71.239 Y148.381 E41.50298
G1 X71.44 Y147.882 E41.52087
G1 X71.686 Y147.544 E41.53478
G1 X72.089 Y147.166 E41.55315
G1 X72.631 Y146.929 E41.57283
G1 X73.099 Y146.852 E41.5886
G1 X73.6 Y146.893 E41.60532
G1 X74.046 Y147.061 E41.62117
G1 X74.384 Y147.25 E41.63405
G1 X74.736 Y147.558 E41.64961
G1 X74.982 Y147.937 E41.66464
G1 X75.142 Y148.39 E41.68062
G1 X75.184 Y148.821 E41.69502
G1 X75.119 Y149.271 E41.71014
G1 X74.969 Y149.639 E41.72336
G1 X74.721 Y150.058 E41.73955
G1 X74.366 Y150.402 E41.756
G1 X73.946 Y150.643 E41.7721
G1 X73.48 Y150.768 E41.78815
G1 F1500 E35.28815
G0 F6000 X74.478 Y150.545
G0 X74.476 Y155.219
G0 X110 Y155.399
G1 F1500 E41.78815
G1 F1200 X164.4 Y155.4 E43.5975
G1 X164.4 Y94.6 E45.61972
G1 X55.6 Y94.6 E49.23842
G1 X55.601 Y155.399 E51.2606
G1 X110 Y155.399 E53.06992
G1 F1500 E46.56992
G0 F6000 X123.649 Y155.219
G0 X123.685 Y135.739
G0 X123.651 Y135.559
G1 F1500 E53.06992
G1 F1200 X123.148 Y135.441 E53.0871
G1 X122.665 Y135.193 E53.10516
G1 X122.248 Y134.805 E53.12411
G1 X121.988 Y134.302 E53.14294
G1 X121.852 Y133.722 E53.16275
G1 X121.916 Y133.17 E53.18124
G1 X122.11 Y132.688 E53.19852
G1 X122.372 Y132.317 E53.21362
G1 X122.776 Y131.951 E53.23176
G1 X123.279 Y131.718 E53.25019
G1 X123.787 Y131.632 E53.26733
G1 X124.273 Y131.671 E53.28355
G1 X124.71 Y131.833 E53.29905
G1 X125.073 Y132.035 E53.31286
G1 X125.414 Y132.335 E53.32797
G1 X125.668 Y132.724 E53.34342
G1 X125.822 Y133.153 E53.35858
G1 X125.869 Y133.615 E53.37403
G1 X125.797 Y134.048 E53.38863
G1 X125.638 Y134.459 E53.40328
G1 X125.396 Y134.84 E53.4183
G1 X125.049 Y135.181 E53.43448
G1 X124.632 Y135.424 E53.45053
G1 X124.142 Y135.559 E53.46744
G1 X123.651 Y135.559 E53.48377
G1 F1500 E46.98377
G0 F6000 X124.571 Y135.283
G0 X124.96 Y135.062
G0 X125.28 Y134.749
G0 X125.654 Y134.019
G0 X125.716 Y133.605
G0 X125.684 Y133.266
G0 X125.184 Y131.886
G0 X128.486 Y126.601
G0 X129.636 Y126.891
G1 F1500 E53.48377
G1 F1200 X129.072 Y126.742 E53.50317
G1 X128.596 Y126.458 E53.5216
G1 X128.332 Y126.228 E53.53325
G1 X128.011 Y125.704 E53.55369
G1 X127.87 Y125.139 E53.57306
G1 X127.863 Y124.796 E53.58447
G1 X128.018 Y124.198 E53.60501
G1 X128.311 Y123.707 E53.62403
G1 X128.572 Y123.442 E53.6364
G1 X129.03 Y123.144 E53.65458
G1 X129.573 Y122.976 E53.67348
G1 X130.129 Y122.973 E53.69197
G1 X130.604 Y123.115 E53.70846
G1 X131.203 Y123.43 E53.73097
G1 X131.605 Y123.931 E53.75234
G1 X131.828 Y124.465 E53.77159
G1 X131.86 Y124.687 E53.77905
G1 X131.836 Y125.223 E53.79689
G1 X131.675 Y125.719 E53.81423
G1 X131.394 Y126.172 E53.83196
G1 X131 Y126.545 E53.85001
G1 X130.546 Y126.777 E53.86697
G1 X130.223 Y126.865 E53.8781
G1 X129.636 Y126.891 E53.89765
G1 F1500 E47.39765
G0 F6000 X128.694 Y126.347
G0 X128.437 Y126.113
G0 X128.151 Y125.641
G0 X128.021 Y125.139
G0 X128.015 Y124.819
G0 X128.132 Y124.365
G0 X128.957 Y122.977
G0 X124.678 Y107.72
G0 X123.636 Y107.684
G1 F1500 E53.89765
G1 F1200 X123.122 Y107.56 E53.91523
G1 X122.678 Y107.316 E53.93208
G1 X122.25 Y106.929 E53.95127
G1 X121.98 Y106.413 E53.97064
G1 X121.851 Y105.84 E53.99018
G1 X121.92 Y105.273 E54.00918
G1 X122.116 Y104.801 E54.02617
G1 X122.378 Y104.43 E54.04128
G1 X122.772 Y104.069 E54.05905
G1 X123.294 Y103.841 E54.078
G1 X123.788 Y103.76 E54.09465
G1 X124.278 Y103.802 E54.11101
G1 X124.662 Y103.936 E54.12453
G1 X125.077 Y104.155 E54.14014
G1 X125.414 Y104.467 E54.15542
G1 X125.666 Y104.844 E54.1705
G1 X125.813 Y105.251 E54.18489
G1 X125.869 Y105.732 E54.201
G1 X125.788 Y106.199 E54.21676
G1 X125.64 Y106.567 E54.22995
G1 X125.399 Y106.956 E54.24517
G1 X125.042 Y107.308 E54.26185
G1 X124.627 Y107.546 E54.27776
G1 X124.144 Y107.678 E54.29441
G1 X123.636 Y107.684 E54.31131
G1 F1500 E47.81131
G0 F6000 X125.167 Y107.441
G0 X156.691 Y125.195
G0 X158.666 Y126.896
G1 F1500 E54.31131
G1 F1200 X158.089 Y126.751 E54.3311
G1 X157.615 Y126.472 E54.34939
G1 X157.312 Y126.204 E54.36285
G1 X157.005 Y125.685 E54.3829
G1 X156.874 Y125.172 E54.40051
G1 X156.863 Y124.806 E54.41269
G1 X157.015 Y124.198 E54.43354
G1 X157.314 Y123.704 E54.45274
G1 X157.568 Y123.445 E54.46481
G1 X158.034 Y123.142 E54.4833
G1 X158.557 Y122.98 E54.50151
G1 X159.146 Y122.977 E54.5211
G1 X159.632 Y123.123 E54.53797
G1 X160.214 Y123.433 E54.55991
G1 X160.611 Y123.937 E54.58125
G1 X160.815 Y124.43 E54.59899
G1 X160.86 Y124.66 E54.60679
G1 X160.837 Y125.223 E54.62553
G1 X160.676 Y125.716 E54.64278
G1 X160.396 Y126.173 E54.6606
G1 X159.996 Y126.549 E54.67886
G1 X159.594 Y126.755 E54.69389
G1 X159.233 Y126.868 E54.70647
G1 X158.666 Y126.896 E54.72535
G0 F6000 X158.687 Y126.49
;TYPE:WALL-OUTER
G1 F1200 X158.25 Y126.378 E54.74035
G1 X157.851 Y126.149 E54.75565
G1 X157.642 Y125.966 E54.76489
G1 X157.389 Y125.555 E54.78095
G1 X157.268 Y125.098 E54.79667
G1 X157.264 Y124.852 E54.80485
G1 X157.389 Y124.358 E54.8218
G1 X157.639 Y123.942 E54.83794
G1 X157.813 Y123.761 E54.84629
G1 X158.2 Y123.51 E54.86164
G1 X158.631 Y123.377 E54.87664
G1 X159.067 Y123.373 E54.89114
G1 X159.495 Y123.503 E54.90602
G1 X159.952 Y123.747 E54.92325
G1 X160.262 Y124.14 E54.9399
G1 X160.462 Y124.623 E54.95728
G1 X160.437 Y125.151 E54.97487
G1 X160.319 Y125.522 E54.98781
G1 X160.081 Y125.92 E55.00324
G1 X159.763 Y126.219 E55.01776
G1 X159.373 Y126.414 E55.03226
G1 X159.181 Y126.466 E55.03887
G1 X158.687 Y126.49 E55.05532
G1 F1500 E48.55532
G0 F6000 X158.611 Y126.79
G0 X157.193 Y126.344
G0 X131.537 Y126.285
G0 X129.702 Y126.492
G1 F1500 E55.05532
G1 F1200 X129.248 Y126.377 E55.0709
G1 X128.838 Y126.14 E55.08665
G1 X128.627 Y125.95 E55.0961
G1 X128.392 Y125.56 E55.11124
G1 X128.268 Y125.1 E55.12709
G1 X128.264 Y124.853 E55.1353
G1 X128.391 Y124.354 E55.15243
G1 X128.634 Y123.948 E55.16817
G1 X128.814 Y123.76 E55.17682
G1 X129.175 Y123.522 E55.1912
G1 X129.616 Y123.379 E55.20662
G1 X130.055 Y123.372 E55.22123
G1 X130.483 Y123.497 E55.23606
G1 X130.951 Y123.748 E55.25372
G1 X131.259 Y124.138 E55.27025
G1 X131.462 Y124.624 E55.28777
G1 X131.44 Y125.136 E55.30481
G1 X131.307 Y125.551 E55.31931
G1 X131.073 Y125.927 E55.33404
G1 X130.764 Y126.216 E55.34811
G1 X130.396 Y126.406 E55.36188
G1 X130.16 Y126.47 E55.37002
G1 X129.702 Y126.492 E55.38527
G1 F1500 E48.88527
G0 F6000 X129.626 Y126.794
G0 X128.826 Y126.802
G0 X125.184 Y131.886
G0 X123.683 Y135.16
