;FLAVOR:Marlin
;TIME:9409
;Filament used: 5.16192m
;Layer height: 0.2
;MINX:53.9
;MINY:98.4
;MINZ:0.2
;MAXX:166.1
;MAXY:151.6
;MAXZ:24.8
;TARGET_MACHINE.NAME:Creality Ender-3 Pro
;Generated with Cura_SteamEngine 5.10.0
; Ender 3 Custom Start G-code
G92 E0 ; Reset Extruder
G28 ; Home all axes
M420 S1 Z10
M104 S175 ; Start heating up the nozzle most of the way
M190 S60 ; Start heating the bed, wait until target temperature reached
M109 S200 ; Finish heating the nozzle
G1 Z2.0 F3000 ; Move Z Axis up little to prevent scratching of Heat Bed
G1 X0.1 Y20 Z0.3 F5000.0 ; Move to start position
G1 X0.1 Y200.0 Z0.3 F1500.0 E15 ; Draw the first line
G1 X0.4 Y200.0 Z0.3 F5000.0 ; Move to side a little
G1 X0.4 Y20 Z0.3 F1500.0 E30 ; Draw the second line
G92 E0 ; Reset Extruder
G1 Z2.0 F3000 ; Move Z Axis up little to prevent scratching of Heat Bed
G1 X5 Y20 Z0.3 F5000.0 ; Move over to prevent blob squish
M82 ;absolute extrusion mode
G92 E0
G92 E0
G1 F1500 E-6.5
;LAYER_COUNT:124
;LAYER:0
M107
G0 F6000 X56.533 Y99.267 Z0.2
;TYPE:SKIRT
G1 F1500 E0
G1 F1200 X57.142 Y98.934 E0.02309
G1 X57.741 Y98.696 E0.04452
G1 X58.469 Y98.507 E0.06954
G1 X59.354 Y98.411 E0.09915
G1 X59.821 Y98.4 E0.11468
G1 X159.799 Y98.4 E3.43997
G1 X160.595 Y98.412 E3.46644
G1 X161.238 Y98.461 E3.48789
G1 X161.968 Y98.609 E3.51267
G1 X162.624 Y98.833 E3.53572
G1 X163.205 Y99.112 E3.55716
G1 X163.831 Y99.515 E3.58192
G1 X164.361 Y99.963 E3.605
G1 X164.801 Y100.435 E3.62646
G1 X165.21 Y100.995 E3.64953
G1 X165.568 Y101.647 E3.67427
G1 X165.806 Y102.246 E3.69571
G1 X165.994 Y102.974 E3.72071
G1 X166.089 Y103.855 E3.75019
G1 X166.1 Y104.321 E3.76569
G1 X166.1 Y145.333 E5.12975
G1 X166.09 Y146.085 E5.15477
G1 X166.042 Y146.728 E5.17621
G1 X165.908 Y147.409 E5.1993
G1 X165.672 Y148.115 E5.22406
G1 X165.37 Y148.739 E5.24711
G1 X165.022 Y149.282 E5.26857
G1 X164.579 Y149.817 E5.29167
G1 X164.036 Y150.325 E5.3164
G1 X163.514 Y150.704 E5.33786
G1 X162.863 Y151.063 E5.36258
G1 X162.218 Y151.317 E5.38564
G1 X161.537 Y151.492 E5.40902
G1 X160.646 Y151.589 E5.43883
G1 X160.179 Y151.6 E5.45437
G1 X60.135 Y151.6 E8.78185
G1 X59.412 Y151.59 E8.8059
G1 X58.769 Y151.541 E8.82735
G1 X58.088 Y151.407 E8.85043
G1 X57.383 Y151.171 E8.87516
G1 X56.802 Y150.893 E8.89658
G1 X56.176 Y150.49 E8.92134
G1 X55.645 Y150.043 E8.94443
G1 X55.173 Y149.534 E8.96752
G1 X54.794 Y149.012 E8.98897
G1 X54.435 Y148.361 E9.0137
G1 X54.197 Y147.762 E9.03514
G1 X54.008 Y147.034 E9.06015
G1 X53.911 Y146.14 E9.09006
G1 X53.9 Y145.667 E9.1058
G1 X53.9 Y104.599 E10.47172
G1 X53.91 Y103.909 E10.49468
G1 X53.959 Y103.266 E10.51612
G1 X54.094 Y102.585 E10.53921
G1 X54.33 Y101.88 E10.56394
G1 X54.609 Y101.299 E10.58538
G1 X55.012 Y100.672 E10.61017
G1 X55.425 Y100.178 E10.63159
G1 X55.93 Y99.703 E10.65464
G1 X56.533 Y99.267 E10.67939
G0 F6000 X56.726 Y99.617
G1 F1200 X57.29 Y99.306 E10.70082
G1 X57.889 Y99.068 E10.72225
G1 X58.513 Y98.905 E10.7437
G1 X59.363 Y98.811 E10.77215
G1 X59.83 Y98.8 E10.78768
G1 X159.793 Y98.8 E14.11247
G1 X160.565 Y98.811 E14.13815
G1 X161.208 Y98.86 E14.15959
G1 X161.84 Y98.988 E14.18104
G1 X162.451 Y99.194 E14.20249
G1 X163.032 Y99.473 E14.22392
G1 X163.574 Y99.822 E14.24537
G1 X164.068 Y100.236 E14.2668
G1 X164.508 Y100.708 E14.28826
G1 X164.886 Y101.23 E14.3097
G1 X165.196 Y101.795 E14.33114
G1 X165.434 Y102.394 E14.35257
G1 X165.596 Y103.018 E14.37402
G1 X165.689 Y103.864 E14.40232
G1 X165.7 Y104.33 E14.41783
G1 X165.7 Y145.328 E15.78143
G1 X165.691 Y146.055 E15.80561
G1 X165.643 Y146.698 E15.82705
G1 X165.516 Y147.33 E15.84849
G1 X165.311 Y147.942 E15.86996
G1 X165.033 Y148.523 E15.89138
G1 X164.685 Y149.066 E15.91283
G1 X164.272 Y149.561 E15.93428
G1 X163.801 Y150.001 E15.95571
G1 X163.279 Y150.38 E15.97717
G1 X162.715 Y150.691 E15.99859
G1 X162.116 Y150.93 E16.02004
G1 X161.493 Y151.094 E16.04147
G1 X160.637 Y151.189 E16.07011
G1 X160.17 Y151.2 E16.08565
G1 X60.14 Y151.2 E19.41266
G1 X59.442 Y151.191 E19.43588
G1 X58.799 Y151.142 E19.45733
G1 X58.167 Y151.015 E19.47877
G1 X57.556 Y150.81 E19.5002
G1 X56.975 Y150.532 E19.52163
G1 X56.432 Y150.183 E19.54309
G1 X55.937 Y149.77 E19.56454
G1 X55.497 Y149.299 E19.58597
G1 X55.118 Y148.777 E19.60743
G1 X54.807 Y148.213 E19.62885
G1 X54.569 Y147.614 E19.65029
G1 X54.406 Y146.99 E19.67174
G1 X54.311 Y146.131 E19.70048
G1 X54.3 Y145.658 E19.71622
G1 X54.3 Y104.604 E21.08168
G1 X54.309 Y103.939 E21.1038
G1 X54.358 Y103.296 E21.12525
G1 X54.486 Y102.664 E21.1467
G1 X54.691 Y102.053 E21.16813
G1 X54.97 Y101.472 E21.18957
G1 X55.319 Y100.929 E21.21104
G1 X55.732 Y100.435 E21.23245
G1 X56.203 Y99.995 E21.25389
G1 X56.726 Y99.617 E21.27535
G1 F1500 E14.77535
;MESH:Body2.stl
G0 F6000 X70.835 Y108.92
G0 X73.002 Y111.554
;TYPE:WALL-INNER
G1 F1500 E21.27535
G1 F1200 X72.466 Y111.485 E21.29333
G1 X71.966 Y111.275 E21.31137
G1 X71.539 Y110.941 E21.3294
G1 X71.225 Y110.526 E21.34671
G1 X71.011 Y110.035 E21.36452
G1 X70.943 Y109.497 E21.38256
G1 X71.01 Y108.966 E21.40036
G1 X71.219 Y108.47 E21.41826
G1 X71.543 Y108.043 E21.43609
G1 X71.97 Y107.719 E21.45391
G1 X72.463 Y107.512 E21.4717
G1 X73 Y107.448 E21.48969
G1 X73.526 Y107.509 E21.5073
G1 X74.026 Y107.719 E21.52534
G1 X74.453 Y108.043 E21.54316
G1 X74.777 Y108.47 E21.56099
G1 X74.986 Y108.966 E21.57889
G1 X75.053 Y109.496 E21.59666
G1 X74.986 Y110.029 E21.61453
G1 X74.778 Y110.524 E21.63239
G1 X74.454 Y110.951 E21.65021
G1 X74.028 Y111.275 E21.66802
G1 X73.539 Y111.482 E21.68568
G1 X73.002 Y111.554 E21.7037
G1 F1500 E15.2037
G0 F6000 X72.975 Y138.263
G0 X73 Y142.548
G1 F1500 E21.7037
G1 F1200 X72.47 Y142.487 E21.72144
G1 X71.97 Y142.277 E21.73948
G1 X71.543 Y141.953 E21.75731
G1 X71.219 Y141.526 E21.77513
G1 X71.011 Y141.03 E21.79302
G1 X70.942 Y140.502 E21.81073
G1 X71.016 Y139.967 E21.8287
G1 X71.218 Y139.47 E21.84654
G1 X71.539 Y139.055 E21.86399
G1 X71.966 Y138.721 E21.88202
G1 X72.464 Y138.511 E21.9
G1 F1188.1 X72.991 Y138.443 E21.91785
G1 F1159.4 X73.617 Y138.506 E21.93951
G1 X74.008 Y138.705 E21.95461
G1 F1176.5 X74.455 Y139.046 E21.97368
G1 F1194 X74.778 Y139.472 E21.99155
G1 F1200 X74.986 Y139.966 E22.00938
G1 X75.054 Y140.503 E22.02738
G1 X74.982 Y141.037 E22.0453
G1 X74.777 Y141.526 E22.06294
G1 X74.453 Y141.953 E22.08077
G1 X74.026 Y142.277 E22.0986
G1 X73.533 Y142.484 E22.11638
G1 X73 Y142.548 E22.13423
G1 F1500 E15.63423
G0 F6000 X74.584 Y142.079
G0 X74.584 Y145.2
G0 X110 Y145.4
G1 F1500 E22.13423
G1 F1200 X159.9 Y145.4 E23.79392
G1 X159.9 Y104.6 E25.15093
G1 X60.1 Y104.6 E28.47029
G1 X60.1 Y145.4 E29.8273
G1 X110 Y145.4 E31.48698
G1 F1500 E24.98698
G0 F6000 X110.002 Y138.281
G0 X110 Y138.1
G1 F1500 E31.48698
G1 F1200 X74.312 Y138.1 E32.67397
G1 F1111.1 X73.859 Y138.116 E32.69025
G1 F1081.1 X73.644 Y137.997 E32.69933
G1 F1165 X73.488 Y137.815 E32.70754
G1 F1200 X73.4 Y137.513 E32.718
G1 X73.404 Y112.923 E33.53587
G1 X73.484 Y112.693 E33.54397
G1 X73.737 Y112.46 E33.55541
G1 X73.917 Y112.4 E33.56172
G1 X146.06 Y112.402 E35.9612
G1 X146.355 Y112.515 E35.97171
G1 X146.478 Y112.635 E35.97743
G1 X146.594 Y112.908 E35.98729
G1 X146.596 Y137.566 E36.80742
G1 X146.558 Y137.723 E36.81279
G1 X146.345 Y137.993 E36.82423
G1 X146.11 Y138.101 E36.83283
G1 X110 Y138.1 E38.03386
G1 F1500 E31.53386
G0 F6000 X145.993 Y138.282
G0 X146.416 Y138.912
G0 X148 Y142.548
G1 F1500 E38.03386
G1 F1200 X147.47 Y142.487 E38.0516
G1 X146.97 Y142.277 E38.06964
G1 X146.543 Y141.953 E38.08747
G1 X146.219 Y141.526 E38.10529
G1 X146.014 Y141.037 E38.12293
G1 X145.942 Y140.503 E38.14085
G1 X146.01 Y139.966 E38.15885
G1 X146.218 Y139.473 E38.17665
G1 X146.541 Y139.045 E38.19449
G1 X146.969 Y138.719 E38.21238
G1 X147.474 Y138.514 E38.23051
G1 X147.997 Y138.442 E38.24807
G1 X148.533 Y138.511 E38.26604
G1 X149.032 Y138.728 E38.28414
G1 X149.453 Y139.043 E38.30163
G1 X149.772 Y139.47 E38.31935
G1 X149.98 Y139.967 E38.33727
G1 X150.054 Y140.497 E38.35507
G1 X149.986 Y141.03 E38.37294
G1 X149.777 Y141.526 E38.39085
G1 X149.453 Y141.953 E38.40867
G1 X149.026 Y142.277 E38.4265
G1 X148.533 Y142.484 E38.44429
G1 X148 Y142.548 E38.46214
G1 F1500 E31.96214
G0 F6000 X147.048 Y142.148
G0 X146.655 Y141.845
G0 X146.352 Y141.452
G0 X146.161 Y140.992
G0 X146.097 Y140.5
G0 X146.161 Y140.008
G0 X146.352 Y139.548
G0 X146.655 Y139.155
G0 X147.996 Y138.26
G0 X147.977 Y111.734
G0 X147.982 Y111.552
G1 F1500 E38.46214
G1 F1200 X147.472 Y111.481 E38.47927
G1 X146.967 Y111.276 E38.49739
G1 X146.536 Y110.943 E38.51551
G1 X146.218 Y110.523 E38.53303
G1 X146.01 Y110.025 E38.55098
G1 X145.943 Y109.496 E38.56872
G1 X146.01 Y108.966 E38.58649
G1 X146.219 Y108.47 E38.60439
G1 X146.543 Y108.043 E38.62221
G1 X146.97 Y107.719 E38.64004
G1 X147.463 Y107.512 E38.65783
G1 X148 Y107.448 E38.67581
G1 X148.526 Y107.509 E38.69343
G1 X149.026 Y107.719 E38.71146
G1 X149.453 Y108.043 E38.72929
G1 X149.777 Y108.47 E38.74712
G1 X149.987 Y108.97 E38.76516
G1 X150.048 Y109.503 E38.783
G1 X149.98 Y110.029 E38.80064
G1 X149.772 Y110.526 E38.81856
G1 X149.453 Y110.953 E38.83629
G1 X149.032 Y111.268 E38.85377
G1 X148.531 Y111.486 E38.87195
G1 X147.982 Y111.552 E38.89034
G0 F6000 X148.006 Y111.148
;TYPE:WALL-OUTER
G1 F1200 X147.573 Y111.094 E38.90485
G1 X147.15 Y110.912 E38.92017
G1 X146.835 Y110.671 E38.93336
G1 X146.559 Y110.302 E38.94869
G1 X146.4 Y109.924 E38.96232
G1 X146.349 Y109.474 E38.97739
G1 X146.397 Y109.096 E38.99006
G1 X146.559 Y108.694 E39.00448
G1 X146.828 Y108.328 E39.01958
G1 X147.194 Y108.059 E39.03469
G1 X147.572 Y107.9 E39.04833
G1 X148.026 Y107.849 E39.06353
G1 X148.426 Y107.901 E39.07694
G1 X148.846 Y108.084 E39.09218
G1 X149.169 Y108.329 E39.10566
G1 X149.437 Y108.694 E39.12072
G1 X149.596 Y109.072 E39.13436
G1 X149.647 Y109.526 E39.14956
G1 X149.594 Y109.925 E39.16295
G1 X149.426 Y110.325 E39.17738
G1 X149.168 Y110.668 E39.19165
G1 X148.827 Y110.924 E39.20583
G1 X148.425 Y111.096 E39.22038
G1 X148.006 Y111.148 E39.23442
G1 F1500 E32.73442
G0 F6000 X148.045 Y111.458
G0 X147.977 Y111.734
G0 X147.996 Y138.26
G0 X147.974 Y142.147
G1 F1500 E39.23442
G1 F1200 X147.57 Y142.095 E39.24797
G1 X147.15 Y141.912 E39.2632
G1 X146.827 Y141.667 E39.27669
G1 X146.559 Y141.302 E39.29175
G1 X146.4 Y140.914 E39.3057
G1 X146.349 Y140.474 E39.32043
G1 X146.401 Y140.07 E39.33398
G1 X146.584 Y139.651 E39.34918
G1 X146.85 Y139.312 E39.36352
G1 X147.194 Y139.059 E39.37772
G1 X147.572 Y138.9 E39.39136
G1 X148.026 Y138.849 E39.40655
G1 X148.426 Y138.901 E39.41997
G1 X148.846 Y139.084 E39.43521
G1 X149.168 Y139.329 E39.44866
G1 X149.426 Y139.671 E39.46291
G1 X149.594 Y140.071 E39.47734
G1 X149.647 Y140.474 E39.49086
G1 X149.596 Y140.925 E39.50596
G1 X149.412 Y141.346 E39.52124
G1 X149.167 Y141.669 E39.53472
G1 X148.802 Y141.937 E39.54978
G1 X148.424 Y142.096 E39.56342
G1 X147.974 Y142.147 E39.57849
G1 F1500 E33.07849
G0 F6000 X147.935 Y142.455
G0 X146.412 Y142.08
G0 X146.412 Y145.2
G0 X110 Y145.8
G1 F1500 E39.57849
G1 F1200 X160.3 Y145.8 E41.25147
G1 X160.3 Y104.2 E42.63509
G1 X59.7 Y104.2 E45.98106
G1 X59.7 Y145.8 E47.36468
G1 X110 Y145.8 E49.03767
G1 F1500 E42.53767
G0 F6000 X110 Y145.49
G0 X110 Y145.2
G0 X110.002 Y138.281
G0 X110 Y137.7
G1 F1500 E49.03767
G1 F1200 X74 Y137.7 E50.23503
G1 X73.883 Y137.663 E50.23911
G1 X73.8 Y137.5 E50.2452
G1 X73.801 Y112.974 E51.06094
G1 X73.828 Y112.897 E51.06365
G1 X73.963 Y112.803 E51.06912
G1 X146.02 Y112.8 E53.46575
G1 X146.119 Y112.838 E53.46927
G1 X146.198 Y112.969 E53.47436
G1 X146.199 Y137.559 E54.29223
G1 X146.035 Y137.701 E54.29944
G1 X110 Y137.7 E55.49797
G1 F1500 E48.99797
G0 F6000 X110 Y138.01
G0 X74.311 Y138.261
G0 X73.77 Y138.334
G0 X75.142 Y139.923
G0 X74.57 Y142.065
G0 X72.935 Y142.455
G0 X72.974 Y142.147
G1 F1500 E55.49797
G1 F1200 X72.57 Y142.095 E55.51152
G1 X72.15 Y141.912 E55.52676
G1 X71.827 Y141.667 E55.54024
G1 X71.559 Y141.302 E55.5553
G1 X71.4 Y140.924 E55.56894
G1 X71.348 Y140.482 E55.58375
G1 X71.402 Y140.071 E55.59753
G1 X71.584 Y139.65 E55.61279
G1 X71.827 Y139.333 E55.62607
G1 X72.15 Y139.084 E55.63964
G1 X72.571 Y138.9 E55.65492
G1 X73.026 Y138.849 E55.67015
G1 X73.426 Y138.901 E55.68356
G1 X73.846 Y139.084 E55.6988
G1 X74.184 Y139.35 E55.71311
G1 X74.437 Y139.694 E55.72731
G1 X74.596 Y140.071 E55.74092
G1 X74.647 Y140.474 E55.75443
G1 X74.596 Y140.914 E55.76916
G1 X74.412 Y141.346 E55.78478
G1 X74.167 Y141.669 E55.79826
G1 X73.802 Y141.937 E55.81332
G1 X73.424 Y142.096 E55.82696
G1 X72.974 Y142.147 E55.84202
G1 F1500 E49.34202
G0 F6000 X72.935 Y142.455
G0 X72.048 Y142.148
G0 X71.655 Y141.845
G0 X71.352 Y141.452
G0 X71.161 Y140.992
G0 X71.097 Y140.5
G0 X71.161 Y140.008
G0 X71.352 Y139.548
G0 X71.655 Y139.155
G0 X72.975 Y138.263
G0 X73.008 Y111.736
G0 X72.974 Y111.147
G1 F1500 E55.84202
G1 F1200 X72.568 Y111.092 E55.85565
G1 X72.15 Y110.912 E55.87079
G1 X71.827 Y110.667 E55.88427
G1 X71.559 Y110.302 E55.89933
G1 X71.402 Y109.925 E55.91292
G1 X71.348 Y109.518 E55.92657
G1 X71.4 Y109.071 E55.94154
G1 X71.584 Y108.65 E55.95682
G1 X71.829 Y108.327 E55.97031
G1 X72.194 Y108.059 E55.98537
G1 X72.572 Y107.9 E55.99901
G1 X73.026 Y107.849 E56.0142
G1 X73.426 Y107.901 E56.02762
G1 X73.846 Y108.084 E56.04285
G1 X74.169 Y108.329 E56.05634
G1 X74.437 Y108.694 E56.0714
G1 X74.596 Y109.072 E56.08504
G1 X74.647 Y109.526 E56.10023
G1 X74.596 Y109.925 E56.11361
G1 X74.437 Y110.302 E56.12722
G1 X74.184 Y110.646 E56.14142
G1 X73.845 Y110.912 E56.15576
G1 X73.425 Y111.096 E56.17101
G1 X72.974 Y111.147 E56.1861
G1 F1500 E49.6861
G0 F6000 X72.935 Y111.455
G0 X73.492 Y111.339
G0 X74.933 Y110.619
G0 X146.874 Y111.431
G0 X147.974 Y111.908
;TYPE:SKIN
G1 F1500 E56.1861
G1 F1200 X148.627 Y111.835 E56.20796
G1 X149.193 Y111.588 E56.2285
G1 X149.708 Y111.212 E56.2497
G1 X150.092 Y110.684 E56.27142
G1 X150.326 Y110.135 E56.29127
G1 X150.408 Y109.531 E56.31154
G1 X150.336 Y108.877 E56.33343
G1 X150.091 Y108.287 E56.35467
G1 X149.707 Y107.785 E56.37569
G1 X149.205 Y107.401 E56.39672
G1 X148.615 Y107.156 E56.41796
G1 X148 Y107.088 E56.43854
G1 X147.385 Y107.158 E56.45913
G1 X146.81 Y107.395 E56.47982
G1 X146.285 Y107.784 E56.50155
G1 X145.916 Y108.271 E56.52187
G1 X145.657 Y108.87 E56.54358
G1 X145.581 Y109.475 E56.56386
G1 X145.656 Y110.12 E56.58545
G1 X145.895 Y110.686 E56.60589
G1 X146.256 Y111.173 E56.62605
G1 F1182.3 X146.46 Y111.346 E56.63508
G1 F1016.9 X146.705 Y111.615 E56.64936
G1 F898.9 X146.837 Y111.685 E56.656
G1 F1004.2 X147.162 Y111.76 E56.66925
G1 F1167.9 X147.368 Y111.827 E56.67666
G1 F1200 X147.974 Y111.908 E56.69699
G1 F1500 E50.19699
G0 F6000 X147.978 Y111.654
G0 X146.781 Y112.91
G0 X146.695 Y138.322
G1 F1500 E56.69699
G1 F744.2 X146.573 Y138.413 E56.70515
G1 F1500 E50.20515
G0 F6000 X146.404 Y138.074
G0 X110.002 Y138.281
G0 X110.002 Y145.2
G0 X110 Y145.04
G1 F1500 E56.70515
G1 F1200 X60.461 Y145.039 E58.35283
G1 X60.46 Y104.96 E59.68586
G1 X159.54 Y104.96 E62.98127
G1 X159.54 Y145.04 E64.31434
G1 X110 Y145.04 E65.96205
G1 F1500 E59.46205
G0 F6000 X110 Y145.3
G0 X110.003 Y138.281
G0 X110 Y138.46
G1 F1500 E65.96205
G1 F1200 X146.015 Y138.459 E67.15991
G1 F1088.4 X146.298 Y138.451 E67.17029
G1 F851.1 X146.573 Y138.413 E67.18331
G1 F905.7 X146.342 Y138.729 E67.20056
G1 F1179.4 X146.267 Y138.803 E67.20413
G1 F1200 X145.896 Y139.309 E67.225
G1 X145.656 Y139.869 E67.24526
G1 X145.581 Y140.526 E67.26725
G1 X145.659 Y141.119 E67.28715
G1 X145.895 Y141.687 E67.30761
G1 X146.283 Y142.206 E67.32916
G1 X146.767 Y142.572 E67.34934
G1 X147.374 Y142.836 E67.37136
G1 X148.009 Y142.907 E67.39261
G1 X148.632 Y142.832 E67.41348
G1 X149.205 Y142.591 E67.43415
G1 X149.723 Y142.187 E67.456
G1 X150.091 Y141.711 E67.47601
G1 X150.339 Y141.095 E67.4981
G1 X150.419 Y140.496 E67.5182
